!!! OTL: Berkowitz470
!!! Chapter: 1
!!! Section: IV
!!! Page: 117
!!! Mode: 
!!! Encoder: DJB
**kern
*staff1
*I"Piano
=1-
*clefC3
*k[b-]
*d:
*M6/8
4.r
8r
8r
8d\
=2
4e\
8dd\
4cc#\
8e\
=3
4f#\
8cc\
4bn\
16g\LL
16a\JJ
=4
8b-\L
8a\
8g#\J
8a\
8r
8A/
=5
8B-/
8r
8g#\
8a\
8r
8cc#\
=6
4dd\
8d\
4e\
8cc\
=7
4bn\
8f#\
4g\
8b-\
=8
!!linebreak:original
8a\L
16g\L
16f\
16e\
16d\JJ
8c#\L
8d\
8e\J
=9
8A/
8r
8cc#\
4dd\
8r
==
*-
